X:1
T:Giardini
T:Rondeau
%%score 1 2 3
L:1/8
M:3/2
K:F
V:1 treble nm="Soprano" snm="S."
V:2 treble-8 nm="Tenor" snm="T."
V:3 bass nm="Bass" snm="B."
V:1
 z4 z4[Q:1/4=144]"^Vivace" c4 | c8 d4 | c8 B4 | (A4 B4) G4 | F8 f4 | (f4 e4) d4 | (c4 B4) A4 | %7
 G8 c4 | c8 d4 | c8 B4 | (A4 B4) G4 | F8 G4 | G4 A4 B4 | (A4 =B4) c4 | d8 c4 | =B8 c4 | c8 c4 | %17
 (e4 f4) d4 | c8 c4 | c8 d4 | c8 B4 | (A4 B4) G4 | F12 |] %23
V:2
 z4 z4 A4 | A8 B4 | A8 G4 | (F4 G4) E4 | F8 d4 | (d4 c4) B4 | (A4 G4) F4 | E8 A4 | A8 B4 | A8 G4 | %10
 (F4 G4) E4 | F8 E4 | E4 F4 G4 | F8 E4 | =B8 c4 | d8 G4 | G8 G4 | (G4 A4) F4 | E8 A4 | A8 B4 | %20
 A8 G4 | (F4 G4) E4 | F12 |] %23
V:3
 z4 z4 F,4 | F,8 F,4 | F,8 C,4 | (D,4 B,,4) C,4 | [F,,F,]8 F,4 | F,8 F,4 | (F,4 E,4) F,4 | %7
 C,8 F,4 | F,8 F,4 | F,8 C,4 | (D,4 B,,4) C,4 | F,8 C4 | C8 C4 | (F,4 D,4) C,4 | G,,8 ^F,,4 | %15
 G,,8 E,4 | E,8 E,4 | (C,4 F,4) G,4 | C,8 F,4 | F,8 F,4 | F,8 C,4 | (D,4 B,,4) C,4 | [F,,F,]12 |] %23

